!!!COM: Beethoven
!!!OTL: 13 Variationen uber "Es war einmal ein alter Mann" aus "Das rote Kappchen" von K. Ditters von Dittersdorf
!!!Variation: Variation 2 c
**function	**harm	**kern	**kern
*	*	*clefF4	*clefG2
*	*	*k[f#c#g#]	*k[f#c#g#]
*M2/4	*M2/4	*M2/4	*M2/4
*A:	*A:	*A:	*A:
8D	8Vb	8r	16ee
.	.	.	16bJJ)
=87	=87	=87	=87
4D	4I	4A	8cc#'L
.	.	.	8ee'J
4D	4V/V	8r	(16dd#LL
.	.	.	16ee
.	.	(8B	16ff#
.	.	.	16dd#JJ)
=88	=88	=88	=88
4.D	4.Vb	8G#'L)	8ee'L
.	.	8B'J	8gg#'J
.	.	(16ELL	8b'
.	.	16F#	.
8D	8Vb	16G#	8r
.	.	16EJJ)	.
=89	=89	=89	=89
4D	4I	4A'	8cc#'L
.	.	.	8ee'J
4D	4viioc/V	8r	(16dd#LL
.	.	.	16ee
*	*	*clefG2	*
.	.	(8a	16ff#
.	.	.	16dd#JJ)
=90	=90	=90	=90
4.D	4.Vb	8g#'L)	8ee'L
.	.	8b'J	8gg#'J
.	.	(16eLL	8bb'
.	.	16f#	.
8D	8Vb	16g#	8r
.	.	16eJJ)	.
=91	=91	=91	=91
4D	4I	4a'	8cc#'L
.	.	.	8ee'J
4D	4V/V	8r	(16dd#LL
.	.	.	16ee
*	*	*clefF4	*
.	.	(8B	16ff#
.	.	.	16dd#JJ)
=92	=92	=92	=92
4.D	4.Vb	8G#'L)	8ee'L
.	.	8B'J	8gg#'J
.	.	(16ELL	8b'
.	.	16F#	.
8D	8Vb	16G#	8r
.	.	16EJJ)	.
=93	=93	=93	=93
4D	4I	4A'	8cc#'L
.	.	.	8ee'J
4D	4viioc/V	8r	(16dd#LL
.	.	.	16ee
*	*	*clefG2	*
.	.	(8a	16ff#
.	.	.	16dd#JJ)
=94	=94	=94	=94
4D	4Vb	4g#')	8ee'L
.	.	.	8gg#'J
4D	4viioc/V	8r	(16ff#LL
.	.	.	16gg#
.	.	(8d#	16aa
.	.	.	16ff#JJ)
=95	=95	=95	=95
4D	4V	8e')	16gg#'LL
.	.	.	16b
.	.	8g#'L	16bb
.	.	.	16bJJ
4D	4V/V	8f#'	16dd#LL
.	.	.	16b
.	.	8a'J	16ff#
.	.	.	16bJJ
=96	=96	=96	=96
2D	2V/V	2r;	2r;
=97	=97	=97	=97
4D	4V	16g#LL	4r
.	.	16b	.
.	.	16e	.
.	.	16bJJ	.
*-	*-	*-	*-
